public/arrow.svg

<svg width="32" height="32" viewBox="0 0 32 32" fill="none" xmlns="http://www.w3.org/2000/svg">
<path fill-rule="evenodd" clip-rule="evenodd" d="M12 30.3334H20C27.24 30.3334 30.3333 27.2401 30.3333 20.0001V12.0001C30.3333 4.76008 27.24 1.66675 20 1.66675H12C4.75996 1.66675 1.66663 4.76008 1.66663 12.0001V20.0001C1.66663 27.2401 4.75996 30.3334 12 30.3334ZM3.66663 12.0001C3.66663 5.85341 5.85329 3.66675 12 3.66675H20C26.1466 3.66675 28.3333 5.85341 28.3333 12.0001V20.0001C28.3333 26.1467 26.1466 28.3334 20 28.3334H12C5.85329 28.3334 3.66663 26.1467 3.66663 20.0001V12.0001ZM15.2933 19.5868C15.4933 19.7868 15.7466 19.8801 15.9999 19.8801C16.2533 19.8801 16.5066 19.7868 16.7066 19.5868L21.4133 14.8801C21.7999 14.4934 21.7999 13.8534 21.4133 13.4668C21.0266 13.0801 20.3866 13.0801 20 13.4668L15.9999 17.4668L11.9999 13.4668C11.6133 13.0801 10.9733 13.0801 10.5866 13.4668C10.1999 13.8534 10.1999 14.4934 10.5866 14.8801L15.2933 19.5868Z" fill="#1B1F23"/>
</svg>

<?xml version="1.0" encoding="utf-8"?>
<!-- Generator: Adobe Illustrator 27.0.0, SVG Export Plug-In . SVG Version: 6.00 Build 0)  -->
<svg version="1.1" id="Слой_1" xmlns="http://www.w3.org/2000/svg" xmlns:xlink="http://www.w3.org/1999/xlink" x="0px" y="0px"
	 viewBox="0 0 32 32" style="enable-background:new 0 0 32 32;" xml:space="preserve">
<style type="text/css">
	.st0{fill-rule:evenodd;clip-rule:evenodd;fill:#1B1F23;}
</style>
<path class="st0" d="M12,30.3h8c7.2,0,10.3-3.1,10.3-10.3v-8c0-7.2-3.1-10.3-10.3-10.3h-8C4.8,1.7,1.7,4.8,1.7,12v8
	C1.7,27.2,4.8,30.3,12,30.3z M3.7,12c0-6.1,2.2-8.3,8.3-8.3h8c6.1,0,8.3,2.2,8.3,8.3v8c0,6.1-2.2,8.3-8.3,8.3h-8
	c-6.1,0-8.3-2.2-8.3-8.3V12z"/>
<path class="st0" d="M15.3,19.6c0.2,0.2,0.5,0.3,0.7,0.3c0.3,0,0.5-0.1,0.7-0.3l4.7-4.7c0.4-0.4,0.4-1,0-1.4c-0.4-0.4-1-0.4-1.4,0
	l-4,4l-4-4c-0.4-0.4-1-0.4-1.4,0c-0.4,0.4-0.4,1,0,1.4L15.3,19.6z"/>
</svg>
